X:1
T:First House in Connaught, The
R:reel
S:Mike Rafferty
N:this is another good pipe tune
Z:Lesl and #54 John B. Walsh
S:Lesl Harker <lmh@RCONS.COM irtrad-l 2000-11-21
M:C|
K:G
G2F2|:DG~G2 AG~G2|BGdG B2AF|DF~F2 AF~F2|A2cA BGAF|
DG~G2 AGG2|BGdG BGG2|defg agfd|1 cAFA G2GF:|2 cAFA G2Bd||
~g3a gfdg|g2bg ageg|~f2dg f2de|fgaf bgaf|
~g2ga gfdg|~g2bg age2|defg agfd|1 cAFA G2Bd:|2 cAFA G4||
